X:1
T:Hell Among the Yearlings [1]
N:From the playing of fiddler Sarah Singleton (1915-1995, Heator,
N:Braxton County, W.Va.), recorded in the field by Gerry Milnes.
M:C|
L:1/8
Q:"Fast"
R:Reel
D:Augusta Heritage AHR 012, Sarah Singleton - "Old Time Fiddling of Braxton
D:County vol. 1" (1992)
D: https://www.slippery-hill.com/content/hell-among-yearlings-12
Z:Transcribed by Andrew Kuntz
K:D
(e|fe)de fdef| d2de fdef|d2e-f- faaf|"*"J[c2e2][ce][=ce]- [^c2e2][A2e2]|
z(Ade) fded|B2[G2B2]- [GB]Bbg|a2c-A- Acea|fdee (d2[d2f2])[D2A2]-|
[DA]Bd[de] fded |[d2f2]de fded-|d2e-f- faaf|[ce][Ae][ce][Be] A2 A2-|
ABde fded|B2 [G2B2]- [G2B2] Bbg|a2 c-A- Acea|fdee (d2[d2f2])||
|:[F2A2]-[A2A2]- [AA]BAA|[=FA]-[^FA] [F2A2]- [FA][GA][F2A2]|JA,2E2- EA,EE|A,2E2 (^DE-E2)|
[FA]-[AA]-[AA]A- AABA| FDFD {F}G2 FD|A,2JA,2- A,A,EE|DEFE D4:|
P:Substitution
"*"
ec[ce]=c- ^c2[A2e2]|

